img/ink-icon.svg

<?xml version="1.0" standalone="no"?><!DOCTYPE svg PUBLIC "-//W3C//DTD SVG 1.1//EN" "http://www.w3.org/Graphics/SVG/1.1/DTD/svg11.dtd"><svg width="100%" height="100%" viewBox="0 0 24 24" version="1.1" xmlns="http://www.w3.org/2000/svg" xmlns:xlink="http://www.w3.org/1999/xlink" xml:space="preserve" style="fill-rule:evenodd;clip-rule:evenodd;stroke-linejoin:round;stroke-miterlimit:1.41421;"><path d="M12,0c-6.627,0 -12,5.373 -12,12c0,6.627 5.373,12 12,12c6.627,0 12,-5.373 12,-12c0,-6.627 -5.373,-12 -12,-12ZM10,16l-2,0l0,-6l2,0l0,6ZM9,9.109c-0.607,0 -1.1,-0.496 -1.1,-1.109c0,-0.612 0.492,-1.109 1.1,-1.109c0.608,0 1.1,0.497 1.1,1.109c0,0.613 -0.493,1.109 -1.1,1.109ZM17,16l-1.998,0l0,-2.861c0,-1.881 -2.002,-1.722 -2.002,0l0,2.861l-2,0l0,-6l2,0l0,1.093c0.872,-1.616 4,-1.736 4,1.548l0,3.359Z" style="fill:#fff;fill-rule:nonzero;"/></svg>

<?xml version="1.0" encoding="UTF-8" standalone="no"?>
<!DOCTYPE svg PUBLIC "-//W3C//DTD SVG 1.1//EN" "http://www.w3.org/Graphics/SVG/1.1/DTD/svg11.dtd">
<svg width="100%" height="100%" viewBox="0 0 24 24" version="1.1" xmlns="http://www.w3.org/2000/svg" xmlns:xlink="http://www.w3.org/1999/xlink" xml:space="preserve" xmlns:serif="http://www.serif.com/" style="fill-rule:evenodd;clip-rule:evenodd;stroke-linejoin:round;stroke-miterlimit:1.41421;">
    <path d="M12,0C5.373,0 0,5.373 0,12C0,18.627 5.373,24 12,24C18.627,24 24,18.627 24,12C24,5.373 18.627,0 12,0ZM10,16L8,16L8,10L10,10L10,16ZM9,9.109C8.393,9.109 7.9,8.613 7.9,8C7.9,7.388 8.392,6.891 9,6.891C9.608,6.891 10.1,7.388 10.1,8C10.1,8.613 9.607,9.109 9,9.109ZM17,16L15.002,16L15.002,13.139C15.002,11.258 13,11.417 13,13.139L13,16L11,16L11,10L13,10L13,11.093C13.872,9.477 17,9.357 17,12.641L17,16Z" style="fill:rgb(52,52,52);fill-rule:nonzero;"/>
</svg>
